X: 20789
T: Johnny McGoohan's
R: reel
M: 4/4
K: Gmajor
|:(3GGG Bd gdBG|(3DDD BD cA (3FGA|G2 Bd gd (3Bcd|(3cBA AG FAdF|
GABd g2 af|gedB A2 Bc|dg (3cBA BGAF|1 ACB,A, G,A, (3B,CD:|
B2 GA Bdef|g2 ga gedc|B2 GA B2 eB|dBAG E3 A|
BG (3GGG (3Bcd ef|g2 e^c (3ded ef|gbag fagf|1 e^cAF G3 A:|

